!!!!SEGMENT: pl-wnifc--6438-n_jarecki-jozef--polonez.krn
!!!cenid: 18xx:3943
!!!COM: Jarecki, Józef
!!!COM-rismID: pe41001558
!!!CDT: 1818/08/02-1871/12/23
!!!CNT: Polish
!!!OTL: Polonez
!!!PDT: 1823
!!!AGN:
!!!SMS-siglum: PL-Wnifc
!!!SMS-shelfmark: 6438/n
!!!SMS-shelfwork: W
!!!SMS-variant:
!!!SMS-altvar:
!!!NIFC-rismSourceID: 1001011445
!!!NIFC-rismChildID: 1001011445
!!!NIFC-islandoraID: nifc:212729
!!!URL-pdf-islandora: https://repozytorium.nifc.pl/islandora/object/nifc:212729/datastream/PDF/view
!!!URL-scan: https://polish.musicsources.pl/pl/lokalizacje/galeria/druki-muzyczne/16856 @EN{Scan on Polish Music Sources Website} @PL{Skany w portalu Dziedzictwo Muzyki Polskiej w otwartym dostępie}
!!!IIIF:
!!!ONB-nifc:
!!!AIN: 2 piano
!!!key: B-
**kern	**kern	**dynam
*part2	*part1	*part1
*staff2	*staff1	*
*I"Piano Forte	*I"Piano Forte	*
*I'pf	*I'pf	*
*Ipiano	*Ipiano	*
*ICklav	*ICklav	*
*clefF4	*clefG2	*
*k[b-e-]	*k[b-e-]	*
*B-:	*B-:	*
*M3/4	*M3/4	*
=1	=1	=1
!	!LO:TX:a:Bi:t=Polonaise.	!
8.BB-\L 8.D 8.F 8.B-	8.dd\L 8.ff 8.bb- 8.ddd	f
16BB-\Jk 16D 16F 16B-	16dd\Jk 16ff 16bb- 16ddd	.
4BB-\ 4D 4F 4B-	4dd\ 4ff 4bb-	.
!	!LO:TUP:a	!
4r	(24ff\LL	.
.	24gg\	.
.	24aa\	.
.	24bb-\	.
.	24ccc\	.
.	24ddd\JJ)	.
=2	=2	=2
8.FF/L 8.AA 8.C 8.F	8.ff\L 8.aa 8.ccc 8.eee-	.
16FF/Jk 16AA 16C 16F	16ff\Jk 16aa 16ccc 16eee-	.
4FF/ 4AA 4C 4F	4ff\ 4aa 4ccc	.
!	!LO:TUP:a	!
4r	(28ff\LL	.
.	28gg\	.
.	28aa\	.
.	28bb-\	.
.	28ccc\	.
.	28ddd\	.
.	28eee-\JJ)	.
=3	=3	=3
8.D/L 8.d	8ff\L 8fff	.
.	16ff\L 16fff	.
16C/Jk 16c	16ee-\JJ 16eee-	.
8.BB-/L 8.B-	8dd\L 8ddd	.
.	16dd\L 16ddd	.
16AA/Jk 16A	16cc\JJ 16ccc	.
8.GG/L 8.G	8b-\L 8bb-	.
.	16b-\L 16bb-	.
16FF/Jk 16F	16a\JJ 16aa	.
=4	=4	=4
8.EE-/L 8.E-	8gg\L 8ggg	.
.	16gg\L 16ggg	.
16DD/Jk 16D	16ff\JJ 16fff	.
8.CC/L 8.C	8ee-\L 8eee-	.
.	16ee-\L 16eee-	.
16DD/Jk 16D	16dd\JJ 16ddd	.
8.EE-/L 8.E-	8cc\L 8ccc	.
.	16cc\L 16ccc	.
16EEn/Jk 16En	16b-\JJ 16bb-	.
=5	=5	=5
8FF/L 8F	16a\LL	.
.	16aa\	.
8AA/J 8A	16f\	.
.	16ff\JJ	.
8BB-\L 8B-	16en\LL	.
.	16een\	.
8C\J 8c	16e-X\	.
.	16ee-X\JJ	.
8BB-\L 8B-	16d\LL	.
.	16dd\	.
8AA\J 8A	16c#X\	.
.	16cc#X\JJ	.
!!LO:LB:g=original
=6	=6	=6
8BB-\L 8B-	16d\LL	.
.	16dd\	.
8AA\J 8A	16f#X\	.
.	16ff#X\JJ	.
8BB-\L 8B-	16g\LL	.
.	16gg\	.
8FF#X\J 8F#X	16a\	.
.	16aa\JJ	.
8GG\L 8G	16b-\LL	.
.	16bb-\	.
8BB-\J 8B-	16dd\	.
.	16ddd\JJ	.
=7	=7	=7
8AA\L 8A	16cc\LL	.
.	16ccc\	.
8FF\J 8F	16a\	.
.	16aa\JJ	.
8GG\L 8G	16b-\LL	.
.	16bb-\	.
8AA\J 8A	16cc\	.
.	16ccc\JJ	.
8BB-\L 8B-	16dd\LL	.
.	16ddd\	.
8C\J 8c	16een\	.
.	16eeen\JJ	.
=8	=8	=8
4F\ 4f	16fff\LL	.
.	16ccc\	.
.	16aa\	.
.	16ff\JJ	.
4C\ 4c	16eeen\LL	.
.	16ccc\	.
.	16bb-\	.
.	16gg\JJ	.
4FF/ 4F	4ff\ 4ccc 4fff	.
!LO:TX:t=[segno]	!LO:TX:t=[segno]	!
!LO:TX:b:t=[segno]	!LO:TX:b:t=[segno]	!
=9!|:	=9!|:	=9!|:
*tremolo	*	*
8B-\L 8d	4.ffT\	p
8f\	.	.
8B-\ 8d	.	.
8f\	16dd\LL	.
.	16b-\JJ	.
8B-\ 8d	8ffT\L	.
8f\J	16dd\L	.
.	16b-\JJ	.
=10	=10	=10
8B-\L 8d	16ff\LL	.
.	16ddd\	.
8f\	16ddd\	.
.	16ccc\JJ	.
8B-\ 8d	16ccc\LL	.
.	16bb-\	.
8f\	16bb-\	.
.	16aa\JJ	.
8B-\ 8d	16aa\LL	.
.	16gg\	.
8f\J	16gg\	.
.	16ff\JJ	.
!!LO:LB:g=original
=11	=11	=11
8F\L 8c 8e-	4.ee-T\	.
8f\	.	.
8F\ 8c 8e-	.	.
8f\	16dd\LL	.
.	16cc\JJ	.
8F\ 8c 8e-	8ee-T\L	.
8f\J	16dd\L	.
.	16cc\JJ	.
=12	=12	=12
8F\L 8c	16ff\LL	.
.	16eee-\	.
8f\	16eee-\	.
.	16ddd\JJ	.
8F\ 8c	16ddd\LL	.
.	16ccc\	.
8f\	16ccc\	.
.	16bb-\JJ	.
8F\ 8c	16bb-\LL	.
.	16aa\	.
8f\J	16gg\	.
.	16ff\JJ	.
=13	=13	=13
*Xtremolo	*	*
*	*^	*
!	!	!	!LO:DY:b:B:t=fr&colon;
8BB-\L 8B-	8ddd/L	4ff^\	f
8D\ 8F	16ccc/L	.	.
.	16bb-/JJ	.	.
8BB-\ 8B-	8ddd/L	4ff^\	.
8D\ 8F	16ccc/L	.	.
.	16bb-/JJ	.	.
8BB-\ 8B-	8ddd/L	4ff^\	.
8D\J 8F	16ccc/L	.	.
.	16bb-/JJ	.	.
*	*v	*v	*
=14	=14	=14
8EE-/L 8E-	8gg^<\L 8bb-	.
8GG/ 8BB-	16ff\L 16aa	.
.	16ee-\JJ 16gg	.
8EE-/ 8E-	8gg^<\L 8bb-	.
8GG/ 8BB-	16ff\L 16aa	.
.	16ee-\JJ 16gg	.
8EE-/ 8E-	8gg^<\L 8bb-	.
8GG/J 8BB-	16ff\L 16aa	.
.	16ee-\JJ 16gg	.
=15	=15	=15
*^	*	*
8BB-/L	4BB-\	16ff\LL	.
.	.	16dd\	.
8D/J 8F	.	16b-\	.
.	.	16f\JJ	.
8B-\L 8d 8f	4rEEyy	16fff\LL	.
.	.	16ddd\	.
8B-\J 8d 8f	.	16bb-\	.
.	.	16ff\JJ	.
4F^<\ 4A 4c 4f	4rEEyy	16eee-\LL	.
.	.	16ccc\	.
.	.	16aa\	.
.	.	16ff\JJ	.
!!LO:LB:g=original
=16	=16	=16	=16
4B-/	8B-\L	16ddd\LL	.
.	.	16bb-\	.
.	8d\J 8f	16ff\	.
.	.	16dd\JJ	.
4rcyy	8B-\L 8d 8f	16fff\LL	.
.	.	16ddd\	.
.	8B-\J 8d 8f	16bb-\	.
.	.	16ff\JJ	.
4rcyy	4F^<\ 4A 4c 4f	16eee-\LL	.
.	.	16ccc\	.
.	.	16aa\	.
.	.	16ff\JJ	.
=17	=17	=17	=17
4B-/	8B-\L	16bb-\LL 16ddd	.
.	.	16aa\ 16ccc	.
.	8d\J 8f	16ddd\ 16fff	.
.	.	16ccc\JJ 16eee-	.
4B-/	8B-\L	16bb-\LL 16ddd	.
.	.	16aa\ 16ccc	.
.	8d\J 8f	16gg\ 16bb-	.
.	.	16ff\JJ 16aa	.
4B-/	8B-\L	16ee-\LL 16gg	.
.	.	16dd\ 16ff	.
.	8d\J 8f	16cc\ 16ee-	.
.	.	16b-\JJ 16dd	.
*v	*v	*	*
=18	=18	=18
!LO:TX:t=P:problem:mixed beam	!	!
8FF/L	16cc\LL 16ee-	.
.	16bn\ 16dd	.
8F\J	16cc\ 16ee-	.
.	16dd\JJ 16ff	.
!LO:TX:t=P:problem:mixed beam	!	!
8FF/L	16ee-\LL 16gg	.
.	16dd\ 16ff	.
8F\J	16cc\ 16ee-	.
.	16b-X\JJ 16dd	.
!LO:TX:t=P:problem:mixed beam	!	!
8FF/L	16a\LL 16cc	.
.	16g\ 16b-	.
8F\J	16f\ 16a	.
.	16e-\JJ 16g	.
=19	=19	=19
8BBB-/L 8BB-	16d/LL 16f	.
.	16dd/	.
8DD/J 8D	16d/ 16f	.
.	16dd/JJ	.
8EE-/L 8E-	16e-/LL 16g	.
.	16ee-/	.
8DD/J 8D	16e-/ 16g	.
.	16ee-/JJ	.
8FF/L 8F	16c/LL 16e-	.
.	16a/	.
8FFF/J 8FF	16c/ 16e-	.
.	16a/JJ	.
!!LO:LB:g=original
=20	=20	=20
*	*Xbrackettup	*
!	!LO:TUP:a	!
8F\L 8B- 8d	(24b-\LL	.
.	24a\	.
.	24b-\)	.
8F\J 8e-	16ff\	.
.	16a\JJ	.
8r	4cc\	.
8F\ 8A 8e-	.	.
4B-\ 4d	4b-\	.
=21:|!|:	=21:|!|:	=21:|!|:
!	!	!LO:DY:b:B:t=ff.
4.DD/ 4.D	4.d/ 4.dd	ff
16DD/LL 16D	16d/LL 16dd	.
16CC#X/JJ 16C#X	16c#X/JJ 16cc#X	.
8DD/L 8D	8d/L 8dd	.
16DD/L 16D	16d/L 16dd	.
16CC#/JJ 16C#	16c#/JJ 16cc#	.
=22	=22	=22
16DD/LL	8d/L 8dd	.
16D/	.	.
16FF#X/	8f#X/J 8ff#X	.
16F#X/JJ	.	.
16GG/LL	8g\L 8gg	.
16G/	.	.
16AA/	8a\J 8aa	.
16A/JJ	.	.
16BB-\LL	8b-\L 8bb-	.
16B-\	.	.
16C#X\	8cc#X\J 8ccc#X	.
16c#X\JJ	.	.
=23	=23	=23
16D\LL	8dd\L 8ddd	.
16d\	.	.
16E-\	8ee-\J 8eee-	.
16e-\JJ	.	.
16F\LL	8dd\L 8ddd	.
16f\	.	.
16F#X\	8ff#X\J 8fff#X	.
16f#X\JJ	.	.
16G\LL	8gg\L 8ggg	.
16g\	.	.
16D\	8dd\J 8ddd	.
16d\JJ	.	.
=24	=24	=24
16E-\LL	8ee-\L 8eee-	.
16e-\	.	.
16D\	8dd\J 8ddd	.
16d\JJ	.	.
16BB-\LL	8b-\L 8bb-	.
16B-\	.	.
16AA\	8a\J 8aa	.
16A\JJ	.	.
4GG\ 4G	4g\ 4gg	.
!!LO:PB:g=original
=25	=25	=25
*^	*	*
4.C/	2.CC\	4.c/ 4.cc	.
16C/LL	.	16c/LL 16cc	.
16BBn/JJ	.	16Bn/JJ 16bn	.
8C/L	.	8c/L 8cc	.
16C/L	.	16c/L 16cc	.
16BBn/JJ	.	16Bn/JJ 16bn	.
*v	*v	*	*
=26	=26	=26
16CC/LL	8c/L 8cc	.
16C/	.	.
16CC/	8en/J 8een	.
16C/JJ	.	.
16DD/LL	8f\L 8ff	.
16D/	.	.
16EE-/	8g\J 8gg	.
16E-/JJ	.	.
16FF/LL	8a\L 8aa	.
16F/	.	.
16GG/	8b-\J 8bb-	.
16G/JJ	.	.
=27	=27	=27
16AA/LL	8cc\L 8ccc	.
16A/	.	.
16BB-/	8dd\J 8ddd	.
16B-/JJ	.	.
8F\ 8A 8c 8f	8ee-\L 8eee-	.
8r	16ee-\L 16eee-	.
.	16dd\JJ 16ddd	.
8F\ 8A 8c 8f	8ee-\L 8eee-	.
8r	16ee-\L 16eee-	.
.	16dd\JJ 16ddd	.
=28	=28	=28
8F\L	16ccc\LL 16eee-	.
.	16ddd\ 16fff	.
8f\J	16eee-\ 16ggg	.
.	16ddd\JJ 16fff	.
8F\L	16ccc\LL 16eee-	.
.	16ddd\ 16fff	.
8f\J	16eee-\ 16ggg	.
.	16ddd\JJ 16fff	.
8F\	16ccc\LL 16eee-	.
.	16bb-\ 16ddd	.
8r	16aa\ 16ccc	.
.	16gg\JJ 16bb-	.
=29	=29	=29
8F\L	16ff\LL 16aa	.
.	16gg\ 16bb-	.
8f\J	16aa\ 16ccc	.
.	16gg\JJ 16bb-	.
8F\L	16ff\LL 16aa	.
.	16gg\ 16bb-	.
8f\J	16aa\ 16ccc	.
.	16gg\JJ 16bb-	.
8F\	16ff\LL 16aa	.
.	16ee-\ 16gg	.
8r	16dd\ 16ff	.
.	16cc\JJ 16ee-	.
!!LO:LB:g=original
=30	=30	=30
*tremolo	*	*
!LO:TX:t=P:problem:mixed beam	!	!
8BB-/L	16b-\LL 16dd	.
.	16cc\ 16ee-	.
8B-\	16dd\ 16ff	.
.	16cc\JJ 16ee-	.
8BB-/	16b-\LL 16dd	.
.	16cc\ 16ee-	.
8B-\	16cc#X\ 16een	.
.	16dd\JJ 16ff	.
8BB-/	16ee\LL 16gg	.
.	16ff\ 16aa	.
8B-\J	16gg\ 16bb-	.
.	16aa\JJ 16ccc	.
=31	=31	=31
[>2.BB-\ [2.B-	16ff\LL 16ddd	>
.	16dd\	.
.	16ee-\ 16ccc	.
.	16cc\JJ	.
.	16gg\LL 16eee-	.
.	16ee-\	.
.	16ff\ 16ddd	.
.	16dd\JJ	.
.	16bb-\LL 16ggg	.
.	16gg\	.
.	16aa\ 16fff	.
.	16ff\JJ	.
=32	=32	=32
2.BB-\] 2.B-]	16gg\LL 16eee-	.
.	16ee-\	.
.	16ff\ 16ddd	.
.	16dd\JJ	.
.	16ee-\LL 16ccc	.
.	16cc\	.
.	16dd\ 16bb-	.
.	16b-\JJ	.
.	16cc\LL 16aa	.
.	16a\	.
.	16b-\ 16gg	.
!	!LO:TX:b:i:t=al Segno.	!
.	16g\JJ	]]
!LO:TX:t=[segno]	!LO:TX:t=[segno]	!
!LO:TX:b:t=[segno]	!LO:TX:b:t=[segno]	!
!!LO:LB:g=original
=33:|!	=33:|!	=33:|!
*k[b-e-a-]	*k[b-e-a-]	*
*E-:	*E-:	*
!	!LO:TX:a:i:t=Trio.	!
8E-\L 8G	8e-/L	p
8B-\	16g/L	.
.	16b-/JJ	.
8E-\ 8G	16ee-\LL	.
.	16gg\	.
8B-\	16ccc\	.
.	16bb-\JJ	.
8E-\ 8G	16aa-\LL	.
.	16gg\	.
8B-\J	16ff\	.
.	16ee-\JJ	.
=34	=34	=34
8E-\L 8F 8A-	8ee-\L	.
.	16qqff/LL	.
.	16qqee-/	.
.	16qqdd/JJ	.
8B-\	16ee-\L	.
.	16ff\JJ	.
8E-\ 8F 8A-	4.dd\	.
8B-\	.	.
8E-\ 8F 8A-	.	.
8B-\J	8dd\	.
=35	=35	=35
8BB-\L 8F	16ff\LL	.
.	16ee-\	.
8B-\	16dd\	.
.	16cc\JJ	.
8BB-\ 8F	16b-\LL	.
.	16aa-\	.
8B-\	16gg\	.
.	16ff\JJ	.
8BB-\ 8F	16ee-\LL	.
.	16dd\	.
8B-\J	16cc\	.
.	16b-\JJ	.
=36	=36	=36
8E-\L 8G	16b-\LL	.
.	16cc\	.
8B-\	16a-\	.
.	16b-\JJ	.
8E-\ 8G	4.g/	.
8B-\	.	.
8E-\ 8G	.	.
!	!LO:TX:t=P:problem:przekreślony obiegnik	!
8B-\J	8gsS/	.
=37	=37	=37
!	!	!LO:DY:b:B:t=f.
16GG\LL	8g\L	f
16G\	.	.
16D\	16bn\L	.
16G\JJ	16dd\JJ	.
16GG\LL	16gg\LL	.
16G\	16ff\	.
16D\	16ee-\	.
16G\JJ	16dd\JJ	.
16GG\LL	16ff\LL	.
16G\	16ee-\	.
16D\	16dd\	.
16G\JJ	16ee-\JJ	.
!!LO:LB:g=original
=38	=38	=38
16C\LL	16dd\LL	.
16G\	16cc\	.
16E-\	16bn\	.
16G\JJ	16cc\JJ	.
*rep	*	*
16C\LL	4.g/	.
16G\	.	.
16E-\	.	.
16G\JJ	.	.
*Xrep	*	*
*rep	*	*
16C\LL	.	.
16G\	.	.
16E-\	16cc\LL	.
16G\JJ	16ee-\JJ	.
*Xrep	*	*
=39	=39	=39
8AA-\L 8A-	8cc\L 8ee- 8ccc	.
16AA-\L 16A-	16cc\L 16ee- 16ff#X	.
16AA-\JJ 16A-	16cc\JJ 16ee- 16ff#	.
*Xtremolo	*	*
8AA-\L 8A-	8cc\L 8ee- 8ff#	.
8AA-\J 8A-	8cc\J 8ee- 8ff#	.
4GG\ 4G	4bn\ 4dd 4gg	.
=40	=40	=40
!	!LO:TUP:a	!
8G\L 8c 8e-	(24ff\LL	.
.	24ee-\	.
.	24dd\)	.
8G\J 8d 8f	16gg\	.
.	16bn\JJ	.
8r	4dd\	.
8G\ 8Bn 8f	.	.
4c\ 4e-	4cc\	.
=41:|!|:	=41:|!|:	=41:|!|:
!	!	!LO:DY:b:B:t=f.
16E-\LL	4.b-T\	f
16B-\	.	.
16G\	.	.
16B-\JJ	.	.
*rep	*	*
16E-\LL	.	.
16B-\	.	.
.	16qqb-/	.
16G\	8gg\L	.
16B-\JJ	.	.
.	16qqa-/	.
*Xrep	*	*
*rep	*	*
16E-\LL	8ff\	.
16B-\	.	.
.	16qqg/	.
16G\	8ee-\J	.
16B-\JJ	.	.
*Xrep	*	*
=42	=42	=42
16BB-\LL	8.g\L 8.ee-	.
16B-\	.	.
16F\	.	.
16B-\JJ	16f\Jk 16dd	.
*rep	*	*
16BB-\LL	4.f\ 4.dd	.
16B-\	.	.
16F\	.	.
16B-\JJ	.	.
*Xrep	*	*
*rep	*	*
16BB-\LL	.	.
16B-\	.	.
16F\	8f\ 8dd	.
16B-\JJ	.	.
*Xrep	*	*
=43	=43	=43
16BB-\LL	8a-\L 8ff	.
16B-\	.	.
16F\	8g\J 8ee-	.
16B-\JJ	.	.
*rep	*	*
16BB-\LL	8f\L 8dd	.
16B-\	.	.
16F\	8a-\ 8cc	.
16B-\JJ	.	.
*Xrep	*	*
*rep	*	*
16BB-\LL	8g\ 8b-	.
16B-\	.	.
16F\	8f\J 8a-	.
16B-\JJ	.	.
*Xrep	*	*
!!LO:LB:g=original
=44	=44	=44
!	!LO:TX:t=P:problem:przekreślony obiegnik	!
16E-\LL	8.f/L 8.a-sS	.
16B-\	.	.
16G\	.	.
16B-\JJ	16b-/Jk	.
*rep	*	*
16E-\LL	4.e-/ 4.g	.
16B-\	.	.
16G\	.	.
16B-\JJ	.	.
*Xrep	*	*
*rep	*	*
16E-\LL	.	.
16B-\	.	.
16G\	8e-/ 8g	.
16B-\JJ	.	.
*Xrep	*	*
=45	=45	=45
16C\LL	4.c/ 4.e- 4.g	.
16G\	.	.
16E-\	.	.
16G\JJ	.	.
*rep	*	*
16C\LL	.	.
16G\	.	.
16E-\	8e-/L 8cc	.
16G\JJ	.	.
*Xrep	*	*
*rep	*	*
16C\LL	8g/ 8ee-	.
16G\	.	.
16E-\	8cc/J 8gg	.
16G\JJ	.	.
*Xrep	*	*
=46	=46	=46
4CC/ 4C	8cc\L 8ee- 8ccc	.
.	8ee-\ 8gg 8eee-	.
8DD/L 8D	8dd\ 8ff 8ddd	.
8EE-/ 8E-	8cc\ 8ee- 8ccc	.
8EEn/ 8En	8dd-X\ 8gg 8bb-	.
8FF/J 8F	8cc\J 8ff 8aa-	.
=47	=47	=47
8D\L 8d	8b-\L 8ff 8aa-	.
8E-\ 8e-	8b-\ 8ee- 8gg	.
8G\ 8g	8b-\ 8ee- 8bb-	.
8F\ 8f	8b-\ 8dd 8aa-	.
8E-\ 8e-	8b-\ 8ee- 8gg	.
8AA-\J 8A-	8a-\J 8cc 8ff	.
=48	=48	=48
*^	*^	*
8B-/L	8BB-\L	8ee-/L	16g\LL	.
.	.	.	16b-\	.
8B-/	8BB-\	8dd/	16a-\	.
.	.	.	16b-\JJ	.
8B-/	8E-\	8ee-/	16g\LL	.
.	.	.	16b-\	.
8B-/J	8BB-\J	8dd/J	16a-\	.
.	.	.	16b-\JJ	.
!	!	!LO:TX:b:i:t=Polonez Da Capo	!	!
4E-\ 4G 4B-	4rEEyy	4g/ 4b- 4ee-	4rcyy	.
*v	*v	*	*	*
*	*v	*v	*
=:|!	=:|!	=:|!
*-	*-	*-
!!!RDF**kern: > = above
!!!RDF**kern: < = below
!!!system-decoration: [(s1,s2)]
!!!ENC: Solarz Mateusz
!!!END: 2022-07-28
!!!ENC: Urszula Świątek
!!!END: 2022-08-24
!!!YEC: Copyright 2022 Narodowy Instytut Fryderyka Chopina (https://polishscores.org)
!!!YEM: License CC-BY-4.0 (https://creativecommons.org/licenses/by/4.0)
